usr/share/icons/biglinux-icons-material/scalable/mimetypes/application-dicom.svg

<svg width="24" height="24" viewBox="0 0 24 24" fill="none" xmlns="http://www.w3.org/2000/svg">
<rect x="1" y="1" width="22" height="22" rx="6.6" fill="url(#paint0_radial_21_13)"/>
<path opacity="0.75" d="M10.8147 4.00087C11.3251 4.00087 11.7406 4.40718 11.7406 4.90615V8.49161C11.4862 8.29416 11.1647 8.17512 10.8147 8.17512C10.6579 8.17512 10.531 8.29916 10.531 8.45241C10.531 8.60566 10.6579 8.72969 10.8147 8.72969C11.3251 8.72969 11.7406 9.136 11.7406 9.63497V16.2954C11.3885 15.8506 10.8917 15.5156 10.3079 15.3617C10.1567 15.3218 10.0006 15.4094 9.96001 15.5577C9.91938 15.7053 10.0092 15.8578 10.1603 15.8977C11.0912 16.1422 11.7406 16.9705 11.7406 17.9122C11.7406 19.0633 10.7826 20 9.60573 20C8.81095 20 8.08745 19.5709 7.71675 18.8816C7.67969 18.8132 7.61482 18.7633 7.53855 18.7433C6.6083 18.4988 5.95965 17.6713 5.95965 16.7303C5.95965 16.5899 5.9739 16.4481 6.00241 16.3105C6.02879 16.1829 5.96107 16.0546 5.83989 16.0018C5.17767 15.7139 4.75 15.0723 4.75 14.3652C4.75 14.0438 4.83482 13.7365 4.99735 13.4643C5.42076 13.8292 5.97463 14.0516 6.58195 14.0516C6.73877 14.0516 6.86565 13.9276 6.86565 13.7743C6.86565 13.6211 6.73877 13.4971 6.58195 13.4971C5.57115 13.4971 4.75 12.6923 4.75 11.7043C4.75 11.1726 4.99022 10.6707 5.40865 10.3293C5.50346 10.2523 5.53553 10.124 5.4892 10.0128C5.39939 9.79756 5.35448 9.57089 5.35448 9.33994C5.35448 8.35199 6.17563 7.5486 7.18642 7.5486C8.19722 7.5486 9.01977 8.35193 9.01977 9.33994C9.01977 9.4932 9.14665 9.61722 9.30346 9.61722C9.46028 9.61722 9.58717 9.49319 9.58717 9.33994C9.58717 8.09676 8.5928 7.07748 7.34107 6.99977C7.22773 6.81444 7.16857 6.60273 7.16857 6.38391C7.16857 5.88993 7.47508 5.46579 7.91202 5.2819C7.92913 5.27693 7.94481 5.26978 7.96049 5.26122C8.09592 5.21061 8.24205 5.18353 8.3953 5.18353C8.87004 5.18353 9.29415 5.44299 9.50162 5.86C9.57005 5.99757 9.73899 6.0546 9.87942 5.98759C10.0206 5.92059 10.0783 5.75593 10.0099 5.61764C9.77321 5.14077 9.32485 4.79861 8.80875 4.67745C9.53226 4.2462 10.2415 4.00098 10.8132 4.00098M13.2318 4.00098C13.8006 4.00098 14.5127 4.24619 15.2362 4.67745C14.7202 4.79863 14.2718 5.1415 14.0351 5.61764C13.9667 5.75521 14.0251 5.92059 14.1656 5.98759C14.3067 6.0546 14.4764 5.99758 14.5448 5.86C14.7522 5.44228 15.1756 5.18353 15.6496 5.18353C15.8029 5.18353 15.9497 5.21061 16.0845 5.26122C16.1001 5.26906 16.118 5.2769 16.1344 5.2819C16.5713 5.4658 16.8778 5.88994 16.8778 6.38391C16.8778 6.60275 16.8172 6.81445 16.7039 6.99977C15.4522 7.07747 14.4592 8.09682 14.4592 9.33994C14.4592 9.4932 14.5861 9.61722 14.7429 9.61722C14.8998 9.61722 15.0266 9.49319 15.0266 9.33994C15.0266 8.35199 15.8478 7.5486 16.8586 7.5486C17.8694 7.5486 18.6919 8.35193 18.6919 9.33994C18.6919 9.57089 18.6463 9.79685 18.5572 10.0128C18.5109 10.1247 18.5437 10.2523 18.6378 10.3293C19.0562 10.6715 19.2964 11.1726 19.2964 11.7043C19.2964 12.6923 18.4738 13.4971 17.4631 13.4971C17.3062 13.4971 17.1794 13.6211 17.1794 13.7743C17.1794 13.9276 17.3062 14.0516 17.4631 14.0516C18.0704 14.0516 18.6242 13.8292 19.0477 13.4643C19.2102 13.7366 19.2964 14.0438 19.2964 14.3652C19.2964 15.0717 18.8687 15.7139 18.2065 16.0018C18.0854 16.0546 18.0176 16.1829 18.044 16.3105C18.0725 16.4481 18.0868 16.5899 18.0868 16.7303C18.0868 17.6713 17.4367 18.4981 16.5065 18.7433C16.4302 18.7633 16.3668 18.8139 16.3297 18.8816C15.9591 19.5709 15.2341 20 14.4393 20C13.2617 20 12.3045 19.0633 12.3045 17.9122C12.3045 17.8345 12.3002 17.756 12.2931 17.6798C12.3002 17.6563 12.3045 17.632 12.3045 17.6064V8.45298C12.3045 7.95401 12.72 7.54771 13.2304 7.54771C13.3872 7.54771 13.5141 7.42368 13.5141 7.27042C13.5141 7.11716 13.3872 6.99314 13.2304 6.99314C12.8811 6.99314 12.5596 7.11218 12.3045 7.30963V4.90528C12.3045 4.4063 12.72 4 13.2304 4M17.4631 8.76591C17.3063 8.76591 17.1794 8.88994 17.1794 9.0432C17.1794 10.0311 16.3583 10.8345 15.3475 10.8345C14.8506 10.8345 14.3859 10.6449 14.0381 10.2978C13.9283 10.1887 13.7479 10.1866 13.636 10.2935C13.5241 10.4004 13.522 10.5758 13.6317 10.6848C14.0245 11.0769 14.5327 11.3171 15.083 11.3755C15.2135 12.2188 15.9598 12.8675 16.858 12.8675C17.0148 12.8675 17.1416 12.7434 17.1416 12.5902C17.1416 12.4369 17.0148 12.3129 16.858 12.3129C16.2706 12.3129 15.7787 11.9073 15.6583 11.3684C16.8344 11.218 17.7461 10.2336 17.7461 9.0432C17.7461 8.88994 17.6193 8.76591 17.4624 8.76591M7.18353 9.06244C7.02671 9.06244 6.89983 9.18504 6.89983 9.3383C6.89983 10.5287 7.81153 11.5152 8.98767 11.6649C8.8672 12.2038 8.37539 12.608 7.78801 12.608C7.63119 12.608 7.50431 12.732 7.50431 12.8853C7.50431 13.0385 7.63119 13.1626 7.78801 13.1626C8.68614 13.1626 9.43322 12.5139 9.56292 11.6706C10.1132 11.6122 10.6208 11.3741 11.0142 10.9813C11.124 10.8723 11.1219 10.6955 11.0099 10.5886C10.898 10.4816 10.7191 10.4831 10.6093 10.5929C10.2615 10.94 9.79673 11.131 9.29991 11.131C8.28911 11.131 7.46657 10.3262 7.46657 9.3383C7.46657 9.18505 7.33968 9.06244 7.18287 9.06244M13.2297 13.1996C13.0729 13.1996 12.946 13.3237 12.946 13.4769C12.946 13.6302 13.0729 13.7542 13.2297 13.7542C14.2405 13.7542 15.0631 14.559 15.0631 15.5469C15.0631 15.6104 15.0588 15.6731 15.0516 15.7358C14.172 16.0844 13.5505 16.9284 13.5505 17.9114C13.5505 18.0646 13.6773 18.1887 13.8341 18.1887C13.991 18.1887 14.1179 18.0646 14.1179 17.9114C14.1179 16.9234 14.9405 16.1187 15.9512 16.1187C16.108 16.1187 16.2349 15.9946 16.2349 15.8414C16.2349 15.6881 16.108 15.5641 15.9512 15.5641C15.8421 15.5641 15.7338 15.5719 15.629 15.5862C15.629 15.5726 15.6305 15.5598 15.6305 15.547C15.6305 14.2532 14.5534 13.1996 13.2297 13.1996ZM9.90509 13.7906C8.58209 13.7906 7.50431 14.8441 7.50431 16.1379C7.50431 16.1514 7.50577 16.1636 7.50577 16.1771C7.40027 16.1636 7.29264 16.155 7.18358 16.155C7.02675 16.155 6.89987 16.279 6.89987 16.4323C6.89987 16.5855 7.02675 16.7096 7.18358 16.7096C8.19437 16.7096 9.01692 17.5144 9.01692 18.5023C9.01692 18.6556 9.1438 18.7796 9.30062 18.7796C9.45744 18.7796 9.58433 18.6556 9.58433 18.5023C9.58433 17.5193 8.96277 16.6747 8.08313 16.3268C8.07672 16.264 8.07172 16.2013 8.07172 16.1379C8.07172 15.1499 8.89433 14.3451 9.90506 14.3451C10.0619 14.3451 10.1888 14.2211 10.1888 14.0679C10.1888 13.9146 10.0619 13.7906 9.90509 13.7906Z" fill="#E0E0E0"/>
<defs>
<radialGradient id="paint0_radial_21_13" cx="0" cy="0" r="1" gradientUnits="userSpaceOnUse" gradientTransform="translate(17.5 1) rotate(116.565) scale(24.5967)">
<stop stop-color="#9B9B9B"/>
<stop offset="1" stop-color="#5B5B5B"/>
</radialGradient>
</defs>
</svg>

<svg xmlns="http://www.w3.org/2000/svg" width="24" height="24" fill="none"><rect width="22" height="22" x="1" y="1" fill="url(#a)" rx="6.6"/><path fill="#E0E0E0" d="M10.815 4c.51 0 .926.407.926.906v3.586a1.506 1.506 0 0 0-.926-.317.28.28 0 0 0-.284.277.28.28 0 0 0 .284.278c.51 0 .926.406.926.905v6.66a2.702 2.702 0 0 0-1.433-.933.284.284 0 0 0-.348.196c-.04.147.05.3.2.34.931.244 1.58 1.073 1.58 2.014 0 1.151-.957 2.088-2.134 2.088-.795 0-1.519-.43-1.89-1.118a.284.284 0 0 0-.177-.139c-.93-.244-1.58-1.072-1.58-2.013 0-.14.015-.282.043-.42a.276.276 0 0 0-.162-.308 1.792 1.792 0 0 1-1.09-1.637c0-.321.085-.629.247-.9a2.42 2.42 0 0 0 1.585.587.28.28 0 0 0 .284-.278.28.28 0 0 0-.284-.277c-1.01 0-1.832-.805-1.832-1.793 0-.531.24-1.033.659-1.375a.272.272 0 0 0 .08-.316 1.74 1.74 0 0 1-.135-.673c0-.988.822-1.791 1.832-1.791 1.011 0 1.834.803 1.834 1.79a.28.28 0 0 0 .283.278.28.28 0 0 0 .284-.277c0-1.243-.994-2.263-2.246-2.34a1.176 1.176 0 0 1-.172-.616A1.2 1.2 0 0 1 7.96 5.26c.136-.05.282-.077.435-.077.475 0 .9.259 1.107.676a.285.285 0 0 0 .377.128.273.273 0 0 0 .13-.37 1.8 1.8 0 0 0-1.2-.94C9.532 4.245 10.242 4 10.813 4m2.419 0c.569 0 1.28.245 2.004.676a1.802 1.802 0 0 0-1.2.94.274.274 0 0 0 .13.37c.14.068.31.01.379-.127.207-.418.63-.676 1.105-.676a1.235 1.235 0 0 1 .484.098 1.2 1.2 0 0 1 .744 1.102c0 .219-.06.43-.174.616-1.252.077-2.245 1.097-2.245 2.34a.28.28 0 0 0 .284.277.28.28 0 0 0 .284-.277c0-.988.82-1.791 1.832-1.791 1.01 0 1.833.803 1.833 1.79 0 .232-.046.458-.135.674a.273.273 0 0 0 .08.316c.42.342.66.844.66 1.375 0 .988-.823 1.793-1.834 1.793a.28.28 0 0 0-.284.277.28.28 0 0 0 .284.278 2.42 2.42 0 0 0 1.585-.588c.162.273.248.58.248.901 0 .707-.427 1.349-1.09 1.637a.276.276 0 0 0-.162.309c.029.137.043.279.043.42 0 .94-.65 1.767-1.58 2.012a.284.284 0 0 0-.177.139A2.139 2.139 0 0 1 14.44 20c-1.178 0-2.135-.937-2.135-2.088a2.52 2.52 0 0 0-.012-.232.252.252 0 0 0 .012-.074V8.453c0-.499.415-.905.925-.905a.28.28 0 0 0 .284-.278.28.28 0 0 0-.284-.277c-.349 0-.67.12-.925.317V4.905c0-.499.415-.905.925-.905m4.233 4.766a.28.28 0 0 0-.284.277c0 .988-.82 1.792-1.831 1.792-.497 0-.962-.19-1.31-.537a.29.29 0 0 0-.402-.005.272.272 0 0 0-.004.392c.393.392.9.632 1.451.69.13.844.877 1.492 1.775 1.492a.28.28 0 0 0 .284-.277.28.28 0 0 0-.284-.277c-.587 0-1.08-.406-1.2-.945 1.176-.15 2.088-1.134 2.088-2.325a.28.28 0 0 0-.284-.277m-10.278.296a.28.28 0 0 0-.284.276c0 1.19.912 2.177 2.088 2.327-.12.539-.613.943-1.2.943a.28.28 0 0 0-.284.277.28.28 0 0 0 .284.278c.898 0 1.645-.65 1.775-1.492a2.399 2.399 0 0 0 1.451-.69.273.273 0 0 0-.004-.392.287.287 0 0 0-.4.004 1.84 1.84 0 0 1-1.31.538c-1.01 0-1.833-.805-1.833-1.793a.28.28 0 0 0-.284-.276M13.23 13.2a.28.28 0 0 0-.284.277.28.28 0 0 0 .284.277c1.01 0 1.833.805 1.833 1.793 0 .063-.004.126-.011.189-.88.348-1.502 1.192-1.502 2.175a.28.28 0 0 0 .284.278.28.28 0 0 0 .284-.278c0-.988.822-1.792 1.833-1.792a.28.28 0 0 0 .284-.278.28.28 0 0 0-.284-.277c-.109 0-.217.008-.322.022l.002-.039c0-1.294-1.078-2.347-2.401-2.347Zm-3.325.59c-1.323 0-2.4 1.054-2.4 2.348v.04a2.538 2.538 0 0 0-.321-.023.28.28 0 0 0-.284.277.28.28 0 0 0 .284.278c1.01 0 1.833.804 1.833 1.792a.28.28 0 0 0 .284.278.28.28 0 0 0 .283-.278c0-.983-.621-1.827-1.5-2.175a1.856 1.856 0 0 1-.012-.19c0-.987.822-1.792 1.833-1.792a.28.28 0 0 0 .284-.277.28.28 0 0 0-.284-.277Z" opacity=".75"/><defs><radialGradient id="a" cx="0" cy="0" r="1" gradientTransform="rotate(116.565 8.441 5.908) scale(24.5967)" gradientUnits="userSpaceOnUse"><stop stop-color="#9B9B9B"/><stop offset="1" stop-color="#5B5B5B"/></radialGradient></defs></svg>
